public/images/terra-icon.svg

<svg width="370" height="354" viewBox="0 0 370 354" fill="none" xmlns="http://www.w3.org/2000/svg">
<mask id="mask0_116_3061" style="mask-type:luminance" maskUnits="userSpaceOnUse" x="0" y="0" width="370" height="354">
<path d="M370 0H0V354H370V0Z" fill="white"/>
</mask>
<g mask="url(#mask0_116_3061)">
<path fill-rule="evenodd" clip-rule="evenodd" d="M135.15 53.5602C142.501 36.5795 146.285 18.3798 146.285 0H273.183C273.183 34.3236 266.117 68.3111 252.389 100.022C247.059 112.333 240.766 124.205 233.576 135.546C231.338 139.077 236.1 143.868 239.899 141.908C279.4 121.518 324.271 110.901 369.969 110.901V232.313C331.171 232.313 293.61 246.72 266.175 272.967C243.197 294.951 228.654 323.496 224.535 354H97.0748C100.08 312.176 113.543 271.874 136.036 236.389C138.275 232.858 133.514 228.065 129.715 230.026C121.548 234.242 113.148 238.064 104.543 241.475C71.3986 254.61 35.875 261.371 0 261.371L1.90718e-05 139.959C19.2105 139.959 38.2329 136.34 55.9809 129.305C73.7291 122.272 89.8556 111.963 103.439 98.9658C117.023 85.9698 127.799 70.5408 135.15 53.5602Z" fill="#FBFAF5"/>
</g>
</svg>

<svg xmlns="http://www.w3.org/2000/svg" fill="none" viewBox="0 0 370 354">
  <path
    fill="#FBFAF5"
    fill-rule="evenodd"
    d="M135.15 53.56c7.351-16.98 11.135-35.18 11.135-53.56h126.898c0 34.324-7.066 68.311-20.794 100.022a257 257 0 0 1-18.813 35.524c-2.238 3.531 2.524 8.322 6.323 6.362 39.501-20.39 84.372-31.007 130.07-31.007v121.412c-38.798 0-76.359 14.407-103.794 40.654-22.978 21.984-37.521 50.529-41.64 81.033H97.075c3.005-41.824 16.468-82.126 38.961-117.611 2.239-3.531-2.522-8.324-6.321-6.363a279 279 0 0 1-25.172 11.449C71.399 254.61 35.875 261.371 0 261.371V139.959c19.21 0 38.233-3.619 55.98-10.654 17.75-7.033 33.876-17.342 47.459-30.34 13.584-12.995 24.36-28.424 31.711-45.405"
    clip-rule="evenodd"
  />
</svg>
